public/img/12.svg

<svg width="326" height="275" viewBox="0 0 326 275" fill="none" xmlns="http://www.w3.org/2000/svg">
<g opacity="0.7">
<g clip-path="url(#clip0)">
<mask id="mask0" mask-type="alpha" maskUnits="userSpaceOnUse" x="-64" y="-117" width="535" height="536">
<path fill-rule="evenodd" clip-rule="evenodd" d="M28.5512 126.063C25.726 134.372 23.41 142.83 21.5733 151.27L130.455 43.5365C128.433 43.505 126.41 43.4553 124.39 43.4056C121.092 43.3244 117.802 43.2434 114.535 43.2426L28.5512 126.063ZM37.5802 103.816L97.2585 44.4771C88.7781 45.9548 80.6907 49.077 73.3264 55.4372C58.2145 68.489 46.4273 85.3278 37.5802 103.816ZM142.203 43.3772L18.3583 169.251C17.5518 174.84 16.8331 180.514 16.2439 186.222L164.61 38.7161C157.409 41.749 149.868 42.9591 142.203 43.3772ZM201.355 2.18391L269.897 -65.9606C266.831 -65.881 263.702 -65.5114 260.512 -64.8223C238.269 -60.0174 224.904 -37.346 211.153 -14.0195C207.947 -8.58131 204.72 -3.10745 201.355 2.18391ZM282.003 -64.7604L15.19 198.556C14.7549 205.088 14.5272 211.613 14.5685 218.057L288.398 -62.8832C286.304 -63.6415 284.172 -64.2713 282.003 -64.7604ZM296.14 -59.4292L14.9715 229.944C15.1641 232.988 15.4282 236.001 15.7707 238.975L307.423 -51.9983C303.811 -54.8453 300.048 -57.3529 296.14 -59.4292ZM311.146 -48.9004L17.4203 249.844C18.2615 254.242 19.3081 258.523 20.5851 262.655L322.468 -37.4039C318.895 -41.5418 315.119 -45.4185 311.146 -48.9004ZM331.485 -25.8727L23.4874 270.795C25.4243 275.54 27.7242 280.037 30.4317 284.228L336.444 -18.5568C334.852 -21.0226 333.199 -23.4681 331.485 -25.8727ZM339.563 -13.5747L37.5103 293.427C37.6552 293.585 37.8009 293.743 37.9474 293.9C40.0421 296.146 42.2597 298.21 44.5879 300.104L346.914 -0.470049C346.543 -1.2358 346.156 -1.99513 345.75 -2.74778C343.823 -6.32876 341.759 -9.95876 339.563 -13.5747ZM350.001 7.13697L49.319 303.618C53.6569 306.558 58.3111 308.988 63.2142 310.965L351.971 14.2031C351.425 11.8044 350.774 9.44719 350.001 7.13697ZM353.542 23.2646L71.7408 313.885C74.4014 314.648 77.118 315.298 79.8814 315.843L354.504 41.9053C354.539 35.5391 354.292 29.2998 353.542 23.2646ZM354.35 49.3227L90.5009 317.413C95.2412 317.895 100.078 318.116 104.969 318.107L353.184 71.3036C353.279 69.6732 353.376 68.0434 353.473 66.4155C353.816 60.678 354.158 54.9632 354.35 49.3227ZM352.428 91.0115L117.146 317.638C124.789 317.077 132.479 316.036 140.065 314.639L352.777 104.17C352.487 99.8309 352.394 95.4366 352.428 91.0115ZM353.71 112.814L160.011 309.687C174.618 303.818 186.694 291.048 198.86 278.183C211.335 264.99 223.906 251.697 239.397 245.644L357.268 128.456C355.764 123.219 354.518 117.997 353.71 112.814ZM360.314 138.188L255.255 241.87C260.177 241.337 265.179 241.296 270.217 241.567L363.109 146.263C362.154 143.574 361.215 140.881 360.314 138.188ZM369.123 163.237L290.726 243.922C292.768 244.237 294.806 244.563 296.837 244.888C298.814 245.205 300.784 245.52 302.745 245.824L373.036 175.697C371.885 171.577 370.549 167.42 369.123 163.237ZM375.249 184.779L313.739 247.34C320.198 248.078 326.502 248.447 332.549 248.027L376.86 203.984C377.249 197.741 376.581 191.322 375.249 184.779Z" fill="white"/>
</mask>
<g mask="url(#mask0)">
<path d="M136.337 109.636H119.142V83.7529H168.012V185.113H188.284V210.453H116.608V185.113H136.337V109.636ZM241.423 110.179C238.165 110.058 235.389 111.084 233.097 113.256C230.804 115.428 229.658 118.505 229.658 122.487H202.327C202.085 109.576 205.585 99.4999 212.825 92.2599C220.065 84.8992 230.08 81.2189 242.871 81.2189C251.197 81.2189 258.497 83.2099 264.772 87.1919C271.167 91.0532 275.752 96.0005 278.528 102.034C281.424 108.067 282.449 115.006 281.605 122.849C280.881 130.692 277.985 138.355 272.917 145.836C272.917 146.801 264.711 158.566 248.301 181.131H283.958V210.453H200.879V203.394L244.862 138.958C247.878 134.373 249.99 130.029 251.197 125.926C252.403 121.703 252.222 118.083 250.654 115.066C249.085 111.929 246.008 110.3 241.423 110.179Z" fill="white"/>
</g>
</g>
</g>
<defs>
<clipPath id="clip0">
<rect x="0.100586" width="325.24" height="274.079" fill="white"/>
</clipPath>
</defs>
</svg>

<svg width="326" height="275" fill="none" xmlns="http://www.w3.org/2000/svg"><g clip-path="url(#clip0)" opacity=".7"><mask id="a" maskUnits="userSpaceOnUse" x="-64" y="-117" width="535" height="536"><path fill-rule="evenodd" clip-rule="evenodd" d="M28.551 126.063a231.068 231.068 0 00-6.978 25.207L130.455 43.536a672.583 672.583 0 01-6.065-.13c-3.298-.082-6.588-.163-9.855-.163l-85.984 82.82zm9.03-22.247l59.677-59.339c-8.48 1.478-16.567 4.6-23.932 10.96-15.111 13.052-26.899 29.89-35.746 48.379zm104.622-60.439L18.358 169.251a423.293 423.293 0 00-2.114 16.971L164.61 38.716c-7.201 3.033-14.742 4.243-22.407 4.661zm59.152-41.193l68.542-68.145a50.58 50.58 0 00-9.385 1.139c-22.243 4.805-35.608 27.476-49.359 50.803-3.206 5.438-6.433 10.912-9.798 16.203zm80.648-66.944L15.19 198.556c-.435 6.532-.663 13.057-.621 19.501l273.829-280.94a53.042 53.042 0 00-6.395-1.877zm14.137 5.33L14.972 229.945c.192 3.044.456 6.057.799 9.031L307.423-51.998c-3.612-2.847-7.375-5.355-11.283-7.431zm15.006 10.53L17.42 249.844c.841 4.398 1.888 8.679 3.165 12.811L322.468-37.404c-3.573-4.138-7.349-8.014-11.322-11.496zm20.339 23.027L23.487 270.795c1.937 4.745 4.237 9.242 6.945 13.433L336.444-18.557a192.436 192.436 0 00-4.959-7.316zm8.078 12.298L37.51 293.427c.145.158.29.316.437.473a66.152 66.152 0 006.64 6.204L346.915-.47a58.75 58.75 0 00-1.164-2.278 239.755 239.755 0 00-6.187-10.827zm10.438 20.712L49.319 303.618c4.338 2.94 8.992 5.37 13.895 7.347L351.971 14.203a74.036 74.036 0 00-1.97-7.066zm3.541 16.128L71.741 313.885a99.06 99.06 0 008.14 1.958L354.504 41.905c.035-6.366-.212-12.605-.962-18.64zm.808 26.058L90.5 317.413c4.741.482 9.578.703 14.469.694L353.184 71.304c.095-1.63.192-3.26.289-4.889.343-5.737.685-11.452.877-17.092zm-1.922 41.688L117.146 317.639c7.643-.561 15.333-1.602 22.919-2.999l212.712-210.47c-.29-4.34-.383-8.733-.349-13.159zm1.282 21.803L160.011 309.687c14.607-5.869 26.683-18.639 38.849-31.504 12.475-13.193 25.046-26.486 40.537-32.539l117.871-117.188c-1.504-5.237-2.75-10.459-3.558-15.642zm6.604 25.374L255.255 241.87c4.922-.533 9.924-.574 14.962-.303l92.892-95.304a465.048 465.048 0 01-2.795-8.075zm8.809 25.049l-78.397 80.685c2.042.315 4.08.641 6.111.966 1.977.317 3.947.632 5.908.936l70.291-70.127c-1.151-4.12-2.487-8.277-3.913-12.46zm6.126 21.542l-61.51 62.561c6.459.738 12.763 1.107 18.81.687l44.311-44.043c.389-6.243-.279-12.662-1.611-19.205z" fill="#fff"/></mask><g mask="url(#a)"><path d="M136.337 109.636h-17.195V83.753h48.87v101.36h20.272v25.34h-71.676v-25.34h19.729v-75.477zm105.086.543c-3.258-.121-6.034.905-8.326 3.077-2.293 2.172-3.439 5.249-3.439 9.231h-27.331c-.242-12.911 3.258-22.987 10.498-30.227 7.24-7.36 17.255-11.041 30.046-11.041 8.326 0 15.626 1.99 21.901 5.973 6.395 3.861 10.98 8.809 13.756 14.842 2.896 6.033 3.921 12.972 3.077 20.815-.724 7.843-3.62 15.506-8.688 22.987 0 .965-8.206 12.73-24.616 35.295h35.657v29.322h-83.079v-7.059l43.983-64.436c3.016-4.585 5.128-8.929 6.335-13.032 1.206-4.223 1.025-7.843-.543-10.86-1.569-3.137-4.646-4.766-9.231-4.887z" fill="#fff"/></g></g><defs><clipPath id="clip0"><path fill="#fff" d="M.101 0h325.24v274.079H.101z"/></clipPath></defs></svg>
